packages/gestalt-icons-android/vr-theme/ic_vr_angled-pin_gestalt.svg

<svg width="24" height="24" viewBox="0 0 24 24" fill="none" xmlns="http://www.w3.org/2000/svg">
<path fill-rule="evenodd" clip-rule="evenodd" d="M22.2929 11.7072L21.2929 10.7072L21.2886 10.7029C20.5742 9.99314 19.4197 9.99458 18.7071 10.7072L16.8204 12.5939L17.2185 13.1247C18.7114 15.1153 18.5135 17.9008 16.754 19.6602L15.2071 21.2072C15.0196 21.3947 14.7652 21.5001 14.5 21.5001C14.2348 21.5001 13.9804 21.3947 13.7929 21.2072L9.00004 16.4143L7.06455 18.349C5.79345 19.6196 4.37144 20.7296 2.83032 21.6543L2.49906 21.853L2.14551 21.4995L2.34218 21.1717C3.26823 19.6283 4.38018 18.2044 5.6531 16.9318L7.58563 14.9999L2.79289 10.2072C2.60536 10.0196 2.5 9.76527 2.5 9.50005C2.5 9.23484 2.60536 8.98048 2.7929 8.79295L4.33982 7.24603C6.09928 5.48658 8.88474 5.28862 10.8753 6.78156L11.4062 7.17968L13.2929 5.29296C14.0057 4.58016 14.0069 3.42524 13.2966 2.7109L13.2929 2.70718L12.2929 1.70718L13.7071 0.292969L22.7008 9.28667L22.7071 9.29297L23.7071 10.293L22.2929 11.7072ZM17.2929 9.29296C17.7611 8.82472 18.3205 8.50313 18.9139 8.32818L15.6719 5.08619C15.4969 5.67958 15.1754 6.23894 14.7071 6.70718L11.5938 9.82043L9.67534 8.38156C8.48098 7.4858 6.80971 7.60458 5.75403 8.66024L4.91422 9.50006L14.5 19.0858L15.3398 18.246C16.3955 17.1904 16.5143 15.5191 15.6185 14.3247L14.1796 12.4062L17.2929 9.29296Z" fill="black"/>
</svg>

<svg xmlns="http://www.w3.org/2000/svg" width="24" height="24"><path d="m22.3 11.7-1-1h-.01a1.83 1.83 0 0 0-2.58 0l-1.89 1.9.4.52a5 5 0 0 1-.47 6.54l-1.54 1.55a1 1 0 0 1-1.42 0L9 16.4l-1.94 1.94a22 22 0 0 1-4.23 3.3l-.33.2-.35-.35.2-.33a22 22 0 0 1 3.3-4.24L7.6 15l-4.8-4.8a1 1 0 0 1 0-1.4l1.55-1.55a5 5 0 0 1 6.54-.47l.53.4 1.88-1.89c.72-.71.72-1.86 0-2.58l-1-1L13.71.29l9 9 1 1zm-5-2.4a4 4 0 0 1 1.61-.97l-3.24-3.24q-.26.9-.96 1.62l-3.12 3.11-1.91-1.44a3 3 0 0 0-3.93.28l-.84.84 9.59 9.59.84-.84a3 3 0 0 0 .28-3.93l-1.44-1.91z"/></svg>
